symbols/web/stars/materialsymbolsrounded/stars_wght100gradN25_48px.svg

<svg xmlns="http://www.w3.org/2000/svg" height="48" width="48"><path d="m24 29 4.9 3.75q.4.25.825-.025.425-.275.375-.825l-1.95-6.1 4.75-3.35q.45-.3.325-.8t-.625-.5h-5.95l-1.95-6.4q-.2-.55-.7-.55-.5 0-.65.55l-2 6.4h-5.9q-.5 0-.675.5-.175.5.325.8l4.75 3.35L18 31.9q-.15.6.3.85.45.25.8 0Zm0 12.4q-3.6 0-6.775-1.35-3.175-1.35-5.55-3.725t-3.725-5.55Q6.6 27.6 6.6 24q0-3.6 1.35-6.775 1.35-3.175 3.725-5.55t5.55-3.725Q20.4 6.6 24 6.6q3.6 0 6.775 1.35 3.175 1.35 5.55 3.725t3.725 5.55Q41.4 20.4 41.4 24q0 3.6-1.35 6.775-1.35 3.175-3.725 5.55t-5.55 3.725Q27.6 41.4 24 41.4ZM24 24Zm0 16.3q6.8 0 11.55-4.775Q40.3 30.75 40.3 24q0-6.8-4.75-11.55Q30.8 7.7 24 7.7q-6.75 0-11.525 4.75T7.7 24q0 6.75 4.775 11.525T24 40.3Z"/></svg>

<svg xmlns="http://www.w3.org/2000/svg" height="48" width="48"><path d="M24 29 28.9 32.75Q29.3 33 29.725 32.725Q30.15 32.45 30.1 31.9L28.15 25.8L32.9 22.45Q33.35 22.15 33.225 21.65Q33.1 21.15 32.6 21.15H26.65L24.7 14.75Q24.5 14.2 24 14.2Q23.5 14.2 23.35 14.75L21.35 21.15H15.45Q14.95 21.15 14.775 21.65Q14.6 22.15 15.1 22.45L19.85 25.8L18 31.9Q17.85 32.5 18.3 32.75Q18.75 33 19.1 32.75ZM24 41.4Q20.4 41.4 17.225 40.05Q14.05 38.7 11.675 36.325Q9.3 33.95 7.95 30.775Q6.6 27.6 6.6 24Q6.6 20.4 7.95 17.225Q9.3 14.05 11.675 11.675Q14.05 9.3 17.225 7.95Q20.4 6.6 24 6.6Q27.6 6.6 30.775 7.95Q33.95 9.3 36.325 11.675Q38.7 14.05 40.05 17.225Q41.4 20.4 41.4 24Q41.4 27.6 40.05 30.775Q38.7 33.95 36.325 36.325Q33.95 38.7 30.775 40.05Q27.6 41.4 24 41.4ZM24 24Q24 24 24 24Q24 24 24 24Q24 24 24 24Q24 24 24 24Q24 24 24 24Q24 24 24 24Q24 24 24 24Q24 24 24 24ZM24 40.3Q30.8 40.3 35.55 35.525Q40.3 30.75 40.3 24Q40.3 17.2 35.55 12.45Q30.8 7.7 24 7.7Q17.25 7.7 12.475 12.45Q7.7 17.2 7.7 24Q7.7 30.75 12.475 35.525Q17.25 40.3 24 40.3Z"/></svg>
